src/assets/icons/filters/categories/helmet_selected.svg

<svg width="48" height="48" viewBox="0 0 48 48" fill="none" xmlns="http://www.w3.org/2000/svg">
<path fill-rule="evenodd" clip-rule="evenodd" d="M47.9857 22.5191C47.7474 15.7401 44.6714 9.43048 39.3202 5.19001C33.8203 0.829506 26.6866 -0.890328 19.7428 0.438962C4.56163 3.35193 -1.035 18.4704 0.154553 32.1305C0.494937 36.027 2.78805 42.7075 6.62723 44.542C9.8125 46.063 15.101 47.9996 22.1935 47.9996C34.9311 47.9996 39.4062 44.3395 39.872 44.3395H39.8756C45.268 39.2195 48.2329 29.4988 47.9857 22.5191" fill="#13C1AC" fill-opacity="0.7"/>
<path fill-rule="evenodd" clip-rule="evenodd" d="M8.24663 11.4459L22.3367 14.5971C24.5815 15.0988 26.6023 16.3456 27.6861 18.0207C28.564 19.3786 29.1408 20.948 29.1408 22.5621V32.9492C29.1408 33.8091 28.4511 34.5598 27.6252 34.7765C23.1071 35.9679 14.0242 37.5175 4.17814 34.6422C3.89867 33.6479 3.67652 32.6608 3.59949 31.7758C3.00829 24.9842 4.15843 17.1733 8.24663 11.4459Z" fill="white" fill-opacity="0.4"/>
<path fill-rule="evenodd" clip-rule="evenodd" d="M8.24663 11.4459L22.3367 14.5971C24.5815 15.0988 26.6023 16.3456 27.6861 18.0207C28.564 19.3786 29.1408 20.948 29.1408 22.5621V32.9492C29.1408 33.8091 28.4511 34.5598 27.6252 34.7765C23.1071 35.9679 14.0242 37.5175 4.17814 34.6422C3.89867 33.6479 3.67652 32.6608 3.59949 31.7758C3.00829 24.9842 4.15843 17.1733 8.24663 11.4459Z" fill="white" fill-opacity="0.5"/>
<path fill-rule="evenodd" clip-rule="evenodd" d="M37.6577 41.2438C37.4821 41.3764 33.4656 44.3395 22.1935 44.3395C15.7441 44.3395 10.9752 42.7093 8.11058 41.3406C7.25962 40.9357 6.42299 39.8841 5.69744 38.5584C9.26251 39.3664 12.6914 39.6906 15.8158 39.6906C21.124 39.6906 25.6834 38.8182 28.4996 38.0765C30.8303 37.4638 32.5717 35.357 32.5717 32.9492V22.5639C32.5717 20.2923 31.8049 18.0834 30.5688 16.1755C28.9797 13.7175 26.305 11.9744 23.1466 11.2685L10.8426 8.52398C13.3023 6.23803 16.4213 4.52536 20.4056 3.76218C21.7056 3.51184 23.0266 3.38586 24.3505 3.38597C28.9905 3.38597 33.514 4.93203 37.1883 7.84679C41.7387 11.4549 44.3579 16.618 44.5603 22.3866C44.8058 29.3017 41.7083 37.7576 37.6559 41.2456L37.6577 41.2438ZM8.24674 11.4459L22.3368 14.5972C24.5816 15.0988 26.6024 16.3456 27.6862 18.0207C28.5641 19.3786 29.1409 20.948 29.1409 22.5621V32.9492C29.1409 33.8091 28.4512 34.5598 27.6253 34.7766C23.1072 35.9679 14.0243 37.5175 4.17825 34.6422C3.89878 33.6479 3.67663 32.6608 3.5996 31.7758C3.0084 24.9842 4.15854 17.1733 8.24674 11.4459ZM47.9857 22.5191C48.2329 29.4988 45.2662 39.2195 39.8756 44.3395H39.872C39.4062 44.3395 34.9311 47.9996 22.1935 47.9996C15.0992 47.9996 9.8125 46.063 6.62543 44.542C2.78626 42.7075 0.494937 36.027 0.154553 32.1305C-1.035 18.4704 4.56163 3.35193 19.7428 0.438962C26.6866 -0.890328 33.8203 0.829506 39.3202 5.19001C44.6696 9.43048 47.7474 15.7401 47.9857 22.5191V22.5191ZM23.9976 32.3939C24.2222 32.3946 24.4449 32.351 24.6527 32.2657C24.8605 32.1804 25.0495 32.0549 25.2089 31.8966C25.3683 31.7382 25.4949 31.55 25.5815 31.3427C25.6682 31.1354 25.7131 30.913 25.7138 30.6884V20.4482C25.7124 19.9947 25.531 19.5604 25.2095 19.2406C24.8881 18.9208 24.4528 18.7417 23.9994 18.7427C23.5459 18.7417 23.1106 18.9208 22.7892 19.2406C22.4677 19.5604 22.2863 19.9947 22.2849 20.4482V30.6884C22.2849 31.6307 23.0517 32.3939 23.9994 32.3939H23.9976ZM36.0006 23.8628C35.5471 23.8618 35.1119 24.0409 34.7904 24.3607C34.4689 24.6805 34.2875 25.1148 34.2861 25.5683V27.2756C34.2861 28.2179 35.0529 28.9811 36.0006 28.9811C36.454 28.982 36.8893 28.8029 37.2108 28.4831C37.5322 28.1633 37.7136 27.729 37.715 27.2756V25.5683C37.7136 25.1148 37.5322 24.6805 37.2108 24.3607C36.8893 24.0409 36.454 23.8618 36.0006 23.8628V23.8628Z" fill="#0F9989"/>
</svg>

<svg width="48" height="48" viewBox="0 0 48 48" fill="none" xmlns="http://www.w3.org/2000/svg"><path fill-rule="evenodd" clip-rule="evenodd" d="M47.986 22.52c-.239-6.78-3.315-13.09-8.666-17.33C33.82.83 26.687-.89 19.743.439 4.562 3.352-1.035 18.47.155 32.13c.34 3.897 2.633 10.578 6.472 12.412C9.813 46.063 15.101 48 22.193 48c12.738 0 17.213-3.66 17.679-3.66h.004c5.392-5.12 8.357-14.841 8.11-21.82" fill="#13C1AC" fill-opacity=".7"/><path fill-rule="evenodd" clip-rule="evenodd" d="M8.247 11.446l14.09 3.151c2.244.502 4.265 1.749 5.35 3.424.877 1.358 1.454 2.927 1.454 4.541V32.95c0 .86-.69 1.61-1.516 1.828-4.518 1.19-13.6 2.74-23.447-.135-.28-.994-.501-1.981-.579-2.866-.59-6.792.56-14.603 4.648-20.33z" fill="#fff" fill-opacity=".4"/><path fill-rule="evenodd" clip-rule="evenodd" d="M8.247 11.446l14.09 3.151c2.244.502 4.265 1.749 5.35 3.424.877 1.358 1.454 2.927 1.454 4.541V32.95c0 .86-.69 1.61-1.516 1.828-4.518 1.19-13.6 2.74-23.447-.135-.28-.994-.501-1.981-.579-2.866-.59-6.792.56-14.603 4.648-20.33z" fill="#fff" fill-opacity=".5"/><path fill-rule="evenodd" clip-rule="evenodd" d="M37.658 41.244c-.176.132-4.192 3.096-15.465 3.096-6.449 0-11.218-1.63-14.082-3-.851-.404-1.688-1.456-2.414-2.782a45.901 45.901 0 0010.119 1.133c5.308 0 9.867-.873 12.684-1.614 2.33-.613 4.072-2.72 4.072-5.128V22.564c0-2.272-.767-4.48-2.003-6.389-1.59-2.458-4.264-4.2-7.422-4.907L10.843 8.524c2.46-2.286 5.578-3.999 9.563-4.762 1.3-.25 2.62-.376 3.945-.376a20.63 20.63 0 0112.837 4.46c4.55 3.609 7.17 8.772 7.372 14.54.246 6.916-2.852 15.372-6.904 18.86l.002-.002zM8.247 11.446l14.09 3.151c2.245.502 4.265 1.749 5.35 3.424.877 1.358 1.454 2.927 1.454 4.541V32.95c0 .86-.69 1.61-1.516 1.828-4.518 1.19-13.6 2.74-23.447-.135-.28-.994-.501-1.981-.578-2.866-.592-6.792.559-14.603 4.647-20.33zm39.739 11.073c.247 6.98-2.72 16.7-8.11 21.82h-.004c-.466 0-4.94 3.66-17.678 3.66-7.095 0-12.381-1.936-15.569-3.457C2.786 42.708.495 36.027.155 32.13-1.035 18.47 4.562 3.352 19.743.44 26.687-.891 33.82.829 39.32 5.19c5.35 4.24 8.427 10.55 8.666 17.33zm-23.988 9.875a1.711 1.711 0 001.716-1.706v-10.24a1.71 1.71 0 00-1.715-1.705 1.71 1.71 0 00-1.714 1.705v10.24a1.71 1.71 0 001.714 1.706h-.001zM36 23.863a1.71 1.71 0 00-1.715 1.705v1.708a1.71 1.71 0 001.715 1.705 1.711 1.711 0 001.714-1.705v-1.708a1.711 1.711 0 00-1.714-1.705z" fill="#0F9989"/></svg>
